X:609
T:Girl I Left Behind Me, The
C:Joe Buchanan's Scottish Tome - Page 177.1
I:177 1
C:Trad.
R:Reel
Z:Carl Allison
L:1/8
M:4/4
K:A
a/>g/ | fe cB/A/ | B/c/B/A/ FG | AA/B/ A/B/c/d/ | e2 ca/g/ |
fe cB/A/ | B/c/B/A/ FG/A/ | GB EF/G/ | A2 A :|
e/>d/ | ce fg | ae cB/A/ | ce fg | a2 ga/>g/ |
fe cB/A/ | B/c/B/A/ FG/A/ | GB EF/G/ | A2 A :|

